X:35
T:score128
L:1/4
Q:1/4=96
M:2/2
I:linebreak $
K:Eb
!pp! (.B .B) G2 | (.F .F) B2 | (.B .B) G2 |$ F/ !>!B B/ E z |!pp! (.A .A) d2 | %5
"_cresc." (.d .d) f2 | (.f .f) (a3/2 g/) |$ (g/"_decresc."f/e/d/!p! f e/) z/ |] %8
